Sources/FrostedUI/Resources/Icons.xcassets/minimize32.imageset/minimize-32.svg

<svg width="32" height="32" viewBox="0 0 32 32" fill="none" xmlns="http://www.w3.org/2000/svg" data-fui-icon="true">
  <path
    d="M27.2841 18.2612C27.6982 18.2613 28.0341 18.5971 28.0341 19.0112C28.0338 19.4252 27.698 19.7611 27.2841 19.7612H20.8212L28.5311 27.4692C28.8236 27.7619 28.8233 28.2369 28.5311 28.5298C28.2382 28.8227 27.7625 28.8227 27.4696 28.5298L19.7606 20.8218V27.2847C19.7603 27.6986 19.4246 28.0336 19.0106 28.0337C18.5968 28.0335 18.2609 27.6985 18.2606 27.2847V19.0112C18.2606 18.5971 18.5966 18.2604 19.0106 18.2603L27.2841 18.2612ZM3.4696 3.47021C3.7625 3.17738 4.23728 3.17734 4.53015 3.47021L12.2391 11.1782V4.71533C12.2394 4.3014 12.5752 3.9654 12.9891 3.96533C13.4031 3.96542 13.7389 4.30141 13.7391 4.71533V12.9888C13.7391 13.4029 13.4033 13.7397 12.9891 13.7397L4.7157 13.7388C4.30157 13.7387 3.9657 13.4029 3.9657 12.9888C3.96589 12.5748 4.30169 12.2389 4.7157 12.2388H11.1786L3.4696 4.53076C3.17683 4.23798 3.17705 3.76314 3.4696 3.47021Z"
    fill="currentColor"
  />
</svg>

<svg xmlns="http://www.w3.org/2000/svg" width="32" height="32" fill="none" data-fui-icon="true" viewBox="0 0 32 32"><path fill="currentColor" d="M27.284 18.261a.75.75 0 0 1 0 1.5h-6.463l7.71 7.708a.75.75 0 0 1-1.061 1.06l-7.71-7.707v6.463a.75.75 0 0 1-1.5 0V19.01c0-.414.337-.75.75-.75zM3.47 3.471a.75.75 0 0 1 1.06 0l7.71 7.707V4.715a.75.75 0 0 1 1.5 0v8.274a.75.75 0 0 1-.75.75H4.715a.75.75 0 0 1 0-1.5h6.463L3.469 4.53a.75.75 0 0 1 0-1.06"/></svg>
